X:6
T:LRYGRGN- Larry Grogan
S:from single sheet song with music
N:natural's here are actually marked as flats
Q:1/4=120
L:1/4
M:6/4
K:G
c|BGBBGB|AFAAFA|(B/c/)dBAFA|GGGGGc|BGBBGB|AFAAFA|\
(B/c/)dBAFA|GGGGG2|=fefedc|BcddBG|=fefefg|AcAAcA|\
=fefedc|BcddBG|(B/c/)dAFA|GGGGG|]
